src/lib/packages/icons/src/assets/filled/trash-slash.svg

<svg width="24" height="24" viewBox="0 0 24 24" fill="none" xmlns="http://www.w3.org/2000/svg">
<path d="M21.53 2.46999C21.237 2.17699 20.762 2.17699 20.469 2.46999L17.689 5.24999H15.79C15.69 5.06999 15.62 4.86 15.54 4.63L15.34 4.02999C15.14 3.40999 14.56 2.99999 13.92 2.99999H10.08C9.43999 2.99999 8.86 3.40999 8.66 4.02999L8.46 4.63C8.38 4.86 8.31 5.06999 8.21 5.24999H3.99999C3.58999 5.24999 3.24999 5.58999 3.24999 5.99999C3.24999 6.40999 3.58999 6.74999 3.99999 6.74999H16.189L15.189 7.74999H5.43899C5.26899 7.74999 5.129 7.9 5.139 8.07L5.74299 17.195L2.46899 20.469C2.17599 20.762 2.17599 21.237 2.46899 21.53C2.61499 21.676 2.80699 21.75 2.99899 21.75C3.19099 21.75 3.383 21.677 3.529 21.53L21.529 3.52999C21.823 3.23799 21.823 2.76199 21.53 2.46999ZM9.24999 11C9.24999 10.59 9.58999 10.25 9.99999 10.25C10.41 10.25 10.75 10.59 10.75 11V12.189L9.24999 13.689V11ZM18.74 9.97999V10.01L18.19 18.2C18.08 19.78 17.25 21 15.19 21H8.80999C8.61999 21 8.44 20.99 8.27 20.97C8.1 20.95 7.93999 20.92 7.78999 20.88C7.78999 20.88 7.74199 20.864 7.72199 20.854C7.61199 20.804 7.52999 20.71 7.52999 20.58C7.52999 20.53 7.54499 20.455 7.59599 20.404L13.25 14.75V16C13.25 16.41 13.59 16.75 14 16.75C14.41 16.75 14.75 16.41 14.75 16V13.25L18.24 9.75999C18.29 9.70999 18.36 9.67999 18.44 9.67999C18.61 9.67999 18.74 9.80999 18.74 9.97999Z" fill="currentColor"/>
</svg>

<svg xmlns="http://www.w3.org/2000/svg" width="24" height="24" fill="none"><path fill="currentColor" d="M21.53 2.47a.75.75 0 0 0-1.061 0l-2.78 2.78H15.79c-.1-.18-.17-.39-.25-.62l-.2-.6c-.2-.62-.78-1.03-1.42-1.03h-3.84c-.64 0-1.22.41-1.42 1.03l-.2.6c-.08.23-.15.44-.25.62H4c-.41 0-.75.34-.75.75s.34.75.75.75h12.189l-1 1h-9.75c-.17 0-.31.15-.3.32l.604 9.125-3.274 3.274a.75.75 0 0 0 1.06 1.061l18-18a.748.748 0 0 0 .001-1.06ZM9.25 11c0-.41.34-.75.75-.75s.75.34.75.75v1.189l-1.5 1.5V11Zm9.49-1.02v.03l-.55 8.19c-.11 1.58-.94 2.8-3 2.8H8.81c-.19 0-.37-.01-.54-.03-.17-.02-.33-.05-.48-.09 0 0-.048-.016-.068-.026-.11-.05-.192-.144-.192-.274 0-.05.015-.125.066-.176l5.654-5.654V16c0 .41.34.75.75.75s.75-.34.75-.75v-2.75l3.49-3.49a.28.28 0 0 1 .2-.08c.17 0 .3.13.3.3Z"/></svg>
